svgs/catima.svg

<svg width="192" height="192" viewBox="0 0 192 192" fill="none" xmlns="http://www.w3.org/2000/svg">
<g clip-path="url(#clip0_107_2)">
<path d="M170 66H22V155H170V66Z" stroke="black" stroke-width="12" stroke-linejoin="round"/>
<path d="M96 123C96 125.106 94.8534 126.887 93.5 128.5C92.1466 130.113 90.5735 131.134 88.5 131.5C86.4265 131.866 84.3234 131.553 82.5 130.5C80.6766 129.447 79.2201 127.479 78.5 125.5" stroke="black" stroke-width="12" stroke-linecap="round" stroke-linejoin="round"/>
<path d="M113.5 125.5C112.78 127.479 111.289 129.36 109.465 130.413C107.642 131.466 105.539 131.779 103.465 131.413C101.392 131.047 99.3187 130.026 97.9653 128.413C96.6119 126.8 95.9653 125.019 95.9653 122.913" stroke="black" stroke-width="12" stroke-linecap="round" stroke-linejoin="round"/>
<path d="M51 104L65 90L79 104" stroke="black" stroke-width="12" stroke-linecap="round" stroke-linejoin="round"/>
<path d="M113 104L127 90L141 104" stroke="black" stroke-width="12" stroke-linecap="round" stroke-linejoin="round"/>
<path d="M29 64L53 37L97 61" stroke="black" stroke-width="12" stroke-linecap="round" stroke-linejoin="round"/>
<path d="M163 64L139 37L94 61" stroke="black" stroke-width="12" stroke-linecap="round" stroke-linejoin="round"/>
</g>
<defs>
<clipPath id="clip0_107_2">
<rect width="192" height="192" fill="white"/>
</clipPath>
</defs>
</svg>

<svg width="192" height="192" viewBox="0 0 192 192" fill="none" xmlns="http://www.w3.org/2000/svg"><g clip-path="url(#a)" stroke="#000" stroke-width="12" stroke-linejoin="round"><path d="M170 66H22v89h148V66Z"/><path d="M96 123c0 2.106-1.147 3.887-2.5 5.5s-2.927 2.634-5 3c-2.073.366-4.177.053-6-1-1.823-1.053-3.28-3.021-4-5" stroke-linecap="round"/><path d="M113.5 125.5c-.72 1.979-2.211 3.86-4.035 4.913-1.823 1.053-3.926 1.366-6 1-2.073-.366-4.146-1.387-5.5-3-1.353-1.613-2-3.394-2-5.5M51 104l14-14 14 14M113 104l14-14 14 14M29 64l24-27 44 24" stroke-linecap="round"/><path d="m163 64-24-27-45 24" stroke-linecap="round"/></g><defs><clipPath id="a"><path fill="#fff" d="M0 0h192v192H0z"/></clipPath></defs></svg>
